src/Icon/svgs/Clap.svg

<svg width="24" height="24" viewBox="0 0 24 24" fill="none" xmlns="http://www.w3.org/2000/svg">
<path fill-rule="evenodd" clip-rule="evenodd" d="M10.1257 5.85526C10.4895 5.39332 11.1724 5.35419 11.5922 5.7659C11.9069 6.07449 12.2386 6.40069 12.4237 6.58585L18.0095 12.1717L19.2716 8.66178C19.4143 8.26484 19.7908 8.00016 20.2126 8.00016H22.0095V15.0002C22.0095 15.5306 21.7988 16.0393 21.4237 16.4143L15.4237 22.4143C14.6427 23.1954 13.3763 23.1954 12.5953 22.4143L5.59528 15.4143C4.92115 14.7402 4.81657 13.6839 5.3454 12.8907L9.3454 6.89066C9.49865 6.66079 9.82184 6.241 10.1257 5.85526Z" fill="#1B1C1D"/>
<path d="M20.0333 6.99576V6.00016H17.7267C17.3049 6.00016 16.9284 6.26484 16.7857 6.66178L16.0095 8.38675L17.4279 9.80521L18.2634 7.63846C18.4118 7.25366 18.7812 6.99938 19.1936 6.9982L20.0333 6.99576Z" fill="#1B1C1D"/>
<path d="M7.36915 5.49202L7.8095 6.00011L3.66417 12.2558C2.87598 13.4452 3.03465 15.0253 4.04363 16.0342L9.5095 21.5001C8.68107 22.3285 7.33792 22.3285 6.5095 21.5001L2.3181 17.3087C0.801306 15.7919 0.565981 13.4154 1.75585 11.6306L5.78141 5.59225C6.14773 5.04277 6.93664 4.99297 7.36915 5.49202Z" fill="#1B1C1D"/>
<path d="M8 0.5L8.5 3.99998L6 2.00007L8 0.5Z" fill="#1B1C1D"/>
<path d="M10 0.500053L9.99999 3.99998L12 1.00005L10 0.500053Z" fill="#1B1C1D"/>
<path d="M13.5 2.00005L11.5 4.50004L14.5 3.99998L13.5 2.00005Z" fill="#1B1C1D"/>
</svg>

<svg xmlns="http://www.w3.org/2000/svg" width="24" height="24" fill="#1B1C1D"><path fill-rule="evenodd" d="M10.126 5.855c.364-.462 1.047-.501 1.467-.089l.832.82 5.586 5.586 1.262-3.51A1 1 0 0 1 20.213 8h1.797v7a2 2 0 0 1-.586 1.414l-6 6a2 2 0 0 1-2.828 0l-7-7a2 2 0 0 1-.25-2.524l4-6c.153-.23.476-.65.78-1.035z"/><path d="M20.033 6.996V6h-2.307a1 1 0 0 0-.941.662l-.776 1.725 1.418 1.418.835-2.167a1 1 0 0 1 .93-.64l.84-.002zM7.369 5.492L7.81 6l-4.145 6.256a3 3 0 0 0 .379 3.778L9.51 21.5a2.12 2.12 0 0 1-3 0l-4.191-4.191a4.5 4.5 0 0 1-.562-5.678l4.026-6.038a1 1 0 0 1 1.588-.1zM8 .5L8.5 4 6 2 8 .5zm2 0V4l2-3-2-.5zM13.5 2l-2 2.5 3-.5-1-2z"/></svg>
